X:20
T:Peuple o s'avance le Seigneur - K82a
C:XVIeme sicle
M:C
L:1/4
K:C
C2EF|G2c2|B2A2|G2-Gz|G2AG|E2E2|FED2|C2z2:|
c2BA|GcB2|A2G2-|GzG2|D2F2|EDEF|(G2A2)|G2z2|
C2EF|G2c2|B2A2|G2-Gz|G2AG|E2E2|FED2|C2z2||
